!!! Genre: Scheidemann Prelude
!!! Title: 4. Praeambulum in d
!!! Phrase: 1
!!! Level: 2
**kern	**kern	**kern	**kern
*clefF4	*clefF4	*clefG2	*clefG2
*k[b-]	*k[b-]	*k[b-]	*k[b-]
*met(c)	*met(c)	*met(c)	*met(c)
*d:	*d:	*d:	*d:
=1	=1	=1	=1
1D	1F#	1d	1a
.	.	.	.
.	.	.	.
.	.	.	.
.	.	.	.
.	.	.	.
.	.	.	.
.	.	.	.
=2	=2	=2	=2
1GG[	2.G	1d	4.b-
.	.	.	.
.	.	.	.
.	.	.	8cc
.	.	.	4b-
.	.	.	.
.	4A	.	4a
.	.	.	.
=3	=3	=3	=3
4GG]	2B-	1d	2g
.	.	.	.
4AA	.	.	.
.	.	.	.
4BB-	2B-[	.	2g[
.	.	.	.
4C	.	.	.
.	.	.	.
=4	=4	=4	=4
1D[	4B-]	1d	4g]
.	.	.	.
.	4B-	.	4g
.	.	.	.
.	4A	.	4f#
.	.	.	.
.	4G	.	4e
.	.	.	.
=5	=5	=5	=5
1D]	1A	4d	4fn
.	.	.	.
.	.	4e	4g
.	.	.	.
.	.	2f	4a
.	.	.	.
.	.	.	4b
.	.	.	.
=6	=6	=6	=6
4AA	2A	1e	1cc[
.	.	.	.
4BB	.	.	.
.	.	.	.
4C	4E	.	.
.	.	.	.
4D	4F#	.	.
.	.	.	.
=7	=7	=7	=7
4E	4G	2e	2cc]
.	.	.	.
4F#	4A	.	.
.	.	.	.
2G	4B	4d	2b[
.	.	.	.
.	4c	4e	.
.	.	.	.
=8	=8	=8	=8
2D	2d	2f	4b]
.	.	.	.
.	.	.	4a
.	.	.	.
8AAL	2c	2e	2a
8BB	.	.	.
8C	.	.	.
8DJ	.	.	.
=9	=9	=9	=9
1E	4B	1e	4a
.	.	.	.
.	4A	.	8g#L
.	.	.	8f#J
.	2B	.	8g#L
.	.	.	8a
.	.	.	8f#
.	.	.	8g#J
=10	=10	=10	=10
1AA	1c	1e	1a
=||	=||	=||	=||
*-	*-	*-	*-